X:684
T:Planxty Scott
C:O'Carolan
B:O'Neill's 684
Z: 1997 by John Chambers <jc@trillian.mit.edu>
N:"Moderate"
N:collected by F.O'Neill.
M:6/8
L:1/8
K:D
DEF/G/ A2B|ABd FED|EFA B2d/e/|.fg/f/e/d/ B2d|
|DEF/G/ A2B|ABd FED|.GA/G/F/E/ .FG/F/E/D/|.E E/F/G/A/ B2c|
|d/f/e/d/c/e/ d2c/B/|B/A/G/A/B/c/ A2B/c/|dFd FdF|FEDD D2z||
||dDF .de/d/c/B/|ABd FED|eEe/f/ e2d/e/|.fg/f/e/d/ B23A/B/c/|
|dAd d/c/d/e/f/e/|d/e/d/B/A/G/ FED|G/A/BG F/G/AF|E/F/GE FED|
FAA AFD|GBB Bcd AF/A/F|GE/G/E|FEDD D2z|]
